assets/logos/icons/file-zip.svg

<svg height="24" viewBox="0 0 24 24" width="24" xmlns="http://www.w3.org/2000/svg"><path d="m18.4705882 6h-2.0588235v-2h-12.35294122v16h12.35294122v-2h2.0588235v2c0 1.1-.9264706 2-2.0588235 2h-12.35294122c-1.13235294 0-2.05882353-.9-2.05882353-2v-16c0-1.1.92647059-2 2.05882353-2h12.35294122c1.1323529 0 2.0588235.9 2.0588235 2zm-7.8080882 4.625h-2.2125v-1.275h4.0875v1.275l-2.325 2.7h2.4v1.275h-4.275v-1.275zm3.3875 3.975v-5.25h1.425v5.25zm3.125-5.25h2.3625c1.1625 0 1.95.7875 1.95 1.8375s-.7875 1.8375-1.95 1.8375h-.9375v1.575h-1.425zm2.2875 1.275h-.8625v1.125h.8625c.3375 0 .6-.2625.6-.5625s-.2625-.5625-.6-.5625z" fill="#492f5c" fill-rule="evenodd"/></svg>

<svg xmlns="http://www.w3.org/2000/svg" xmlns:xlink="http://www.w3.org/1999/xlink" width="24" height="24" viewBox="0 0 24 24">
  <defs>
    <path id="file-zip-a" d="M18.4705882,6 L16.4117647,6 L16.4117647,4 L4.05882348,4 L4.05882348,20 L16.4117647,20 L16.4117647,18 L18.4705882,18 L18.4705882,20 C18.4705882,21.1 17.5441176,22 16.4117647,22 L4.05882348,22 C2.92647054,22 1.99999995,21.1 1.99999995,20 L1.99999995,4 C1.99999995,2.9 2.92647054,2 4.05882348,2 L16.4117647,2 C17.5441176,2 18.4705882,2.9 18.4705882,4 L18.4705882,6 Z M10.6625,10.625 L8.45,10.625 L8.45,9.35 L12.5375,9.35 L12.5375,10.625 L10.2125,13.325 L12.6125,13.325 L12.6125,14.6 L8.3375,14.6 L8.3375,13.325 L10.6625,10.625 Z M14.05,14.6 L14.05,9.35 L15.475,9.35 L15.475,14.6 L14.05,14.6 Z M17.175,9.35 L19.5375,9.35 C20.7,9.35 21.4875,10.1375 21.4875,11.1875 C21.4875,12.2375 20.7,13.025 19.5375,13.025 L18.6,13.025 L18.6,14.6 L17.175,14.6 L17.175,9.35 Z M19.4625,10.625 L18.6,10.625 L18.6,11.75 L19.4625,11.75 C19.8,11.75 20.0625,11.4875 20.0625,11.1875 C20.0625,10.8875 19.8,10.625 19.4625,10.625 Z"/>
  </defs>
  <use fill="#492F5C" fill-rule="evenodd" xlink:href="#file-zip-a"/>
</svg>
